X: 1575
T: Jacko's Home Sweet Home Mazurka
B: australian traditional tunes wiki
M:3/4
L:1/8
R: Mazurka
Q: 1/4=100
K:D
V:1 
DE|:"D"FD FD "G"GB|"D"AF DF AF|"A7"GE CE GE|1"D"F2D2DE:|2"D"D3A Bc||
|:"D"dc ed cB|AG DF AF|"A7"GE CE GE|1"D"F3A Bc:|2"D"D6||
% abcbook-tune_id 6342d53aa06ecc4fad97cc87


% abcbook-boost 0
% abcbook-tablature 
% abcbook-transpose 
% abcbook-lastupdated 1665324371914
% abcbook-soundfonts 
% abcbook-repeats 1
% NFF Book 2013

